icons/caret-double-toprightB.svg

<svg width="24" height="24" viewBox="0 0 24 24" fill="none" xmlns="http://www.w3.org/2000/svg">
<path d="M12.0696 17.6304V12.1304C12.0696 12.0304 11.9696 11.9304 11.8696 11.9304H6.3696C6.1696 11.8304 6.0696 12.1304 6.1696 12.3304L11.6696 17.8304C11.8696 17.9304 12.0696 17.8304 12.0696 17.6304Z" fill="black"/>
<path fill-rule="evenodd" clip-rule="evenodd" d="M6.47915 11.1804C6.30404 11.1431 6.10794 11.1543 5.91632 11.2459C5.66539 11.366 5.53228 11.5718 5.46774 11.7224C5.34369 12.0119 5.34972 12.3676 5.49878 12.6658L5.55321 12.7746L11.2253 18.4468L11.3342 18.5012C11.6109 18.6395 11.9617 18.6729 12.28 18.5137C12.6162 18.3456 12.8196 18.0064 12.8196 17.6304V12.1304C12.8196 11.8364 12.6802 11.6053 12.5374 11.4625C12.3947 11.3198 12.1635 11.1804 11.8696 11.1804H6.47915ZM7.58026 12.6804L11.3196 16.4197V12.6804H7.58026Z" fill="black"/>
<path d="M17.8697 11.8304V6.33037C17.8697 6.23037 17.7697 6.13037 17.6697 6.13037H12.1697C11.9697 6.13037 11.8697 6.33037 11.9697 6.53037L17.4697 12.0304C17.6697 12.1304 17.8697 12.0304 17.8697 11.8304Z" fill="black"/>
<path fill-rule="evenodd" clip-rule="evenodd" d="M11.2863 5.91996C11.4544 5.58378 11.7935 5.38037 12.1696 5.38037H17.6696C17.9635 5.38037 18.1947 5.51978 18.3374 5.66254C18.4802 5.8053 18.6196 6.03645 18.6196 6.33037V11.8304C18.6196 12.2064 18.4162 12.5456 18.08 12.7137C17.7617 12.8729 17.4109 12.8396 17.1342 12.7012L17.0253 12.6468L11.3532 6.97464L11.2988 6.86578C11.1604 6.58906 11.1271 6.23831 11.2863 5.91996ZM13.3803 6.88037L17.1196 10.6197V6.88037H13.3803Z" fill="black"/>
</svg>

<svg xmlns="http://www.w3.org/2000/svg" fill="none" viewBox="0 0 24 24">
  <path fill="#000" d="M12.07 17.63v-5.5c0-.1-.1-.2-.2-.2h-5.5c-.2-.1-.3.2-.2.4l5.5 5.5c.2.1.4 0 .4-.2Z"/>
  <path fill="#000" fill-rule="evenodd" d="M6.48 11.18a.87.87 0 0 0-.564.066.928.928 0 0 0-.448.476 1.14 1.14 0 0 0 .03.944l.055.109 5.672 5.672.11.054c.276.139.627.172.945.013a.978.978 0 0 0 .54-.884v-5.5a.95.95 0 0 0-.283-.668.95.95 0 0 0-.667-.282H6.48Zm1.1 1.5 3.74 3.74v-3.74H7.58Z" clip-rule="evenodd"/>
  <path fill="#000" d="M17.87 11.83v-5.5c0-.1-.1-.2-.2-.2h-5.5c-.2 0-.3.2-.2.4l5.5 5.5c.2.1.4 0 .4-.2Z"/>
  <path fill="#000" fill-rule="evenodd" d="M11.286 5.92a.978.978 0 0 1 .884-.54h5.5a.95.95 0 0 1 .667.283.95.95 0 0 1 .283.667v5.5a.978.978 0 0 1-.54.884c-.318.159-.67.126-.946-.013l-.109-.054-5.672-5.672-.054-.11a1.056 1.056 0 0 1-.013-.945Zm2.094.96 3.74 3.74V6.88h-3.74Z" clip-rule="evenodd"/>
</svg>
